X:4806
L:1/8
M:4/4
K:G
 D | E2 c A F2 D F | G2 e c{c} B3 c | (d2 g) e (d2 g) e | d(e/d/c) B{B} A3 f | (ge^cA d2 A) F | 
 (GF/G/A) A Dd'af | (ge)(^cA) d2 AF | G(fg) aA d2 z d | (dB) G F EG z G | (ec) A G (F/G/A) z B | 
 (cc/d/e) A (BB/c/d) G | (AB) (cd) e3 f | g2 (d/e/f/d/ g2) d B | (cB/c/d) D G3/2A/4B/4 c/d/e/f/ | 
 g2 (d/e/f/d/) | (g2 dB) | c(B/c/)d D G3 ||

